X:157
T:Callaghan's
M:4/4
L:1/8
R:Reel
K:D
AFFF FEDE|FFFE FFdB|AFFF FEDE|FBBA FEE/2E/2E|
AFFF FEDE|FFFE FFdB|AFFF FEDE|EFEG FD(3EFG)|
A3B AFF/2F/2F|ABde feee|fedc BcdB|ABdf fedB|
A3B AFF/2F/2F|ABde feee|fedc BcdB|ABdf fedB|
